Deepin-blue/actions/scalable/gtk-refresh.svg

<?xml version="1.0" encoding="UTF-8" standalone="no"?>
<!-- Created with Inkscape (http://www.inkscape.org/) -->

<svg
   xmlns:dc="http://purl.org/dc/elements/1.1/"
   xmlns:cc="http://creativecommons.org/ns#"
   xmlns:rdf="http://www.w3.org/1999/02/22-rdf-syntax-ns#"
   xmlns:svg="http://www.w3.org/2000/svg"
   xmlns="http://www.w3.org/2000/svg"
   xmlns:sodipodi="http://sodipodi.sourceforge.net/DTD/sodipodi-0.dtd"
   xmlns:inkscape="http://www.inkscape.org/namespaces/inkscape"
   width="48"
   height="48"
   id="svg4183"
   version="1.1"
   inkscape:version="0.48+devel r12660"
   sodipodi:docname="system-reboot.svg">
  <defs
     id="defs4185" />
  <sodipodi:namedview
     id="base"
     pagecolor="#ffffff"
     bordercolor="#666666"
     borderopacity="1.0"
     inkscape:pageopacity="0.0"
     inkscape:pageshadow="2"
     inkscape:zoom="5.7317365"
     inkscape:cx="44.040309"
     inkscape:cy="36.878889"
     inkscape:document-units="px"
     inkscape:current-layer="layer1"
     showgrid="false"
     inkscape:window-width="1366"
     inkscape:window-height="714"
     inkscape:window-x="0"
     inkscape:window-y="30"
     inkscape:window-maximized="1">
    <sodipodi:guide
       position="9,39.000017"
       orientation="30,0"
       id="guide3275" />
    <sodipodi:guide
       position="9,9.0000174"
       orientation="0,30"
       id="guide3277" />
    <sodipodi:guide
       position="39,9.0000174"
       orientation="-30,0"
       id="guide3279" />
    <sodipodi:guide
       position="39,39.000017"
       orientation="0,-30"
       id="guide3281" />
    <sodipodi:guide
       position="9,39.000017"
       orientation="18,0"
       id="guide3294" />
    <sodipodi:guide
       position="9,27.000017"
       orientation="18,0"
       id="guide4104" />
    <sodipodi:guide
       position="9,9.0000174"
       orientation="0,18"
       id="guide4106" />
    <sodipodi:guide
       position="27,9.0000174"
       orientation="-18,0"
       id="guide4108" />
    <sodipodi:guide
       position="27,27.000017"
       orientation="0,-18"
       id="guide4110" />
    <sodipodi:guide
       position="27,13.000017"
       orientation="4,0"
       id="guide3278" />
    <sodipodi:guide
       position="27,9.0000174"
       orientation="0,-11"
       id="guide3280" />
    <sodipodi:guide
       position="16,9.0000174"
       orientation="-4,0"
       id="guide3282" />
    <sodipodi:guide
       position="16,13.000017"
       orientation="0,11"
       id="guide3284" />
    <sodipodi:guide
       position="27,9.0000174"
       orientation="0,-4"
       id="guide3286" />
    <sodipodi:guide
       position="23,9.0000174"
       orientation="-11,0"
       id="guide3288" />
    <sodipodi:guide
       position="23,20.000017"
       orientation="0,4"
       id="guide3290" />
    <sodipodi:guide
       position="27,20.000017"
       orientation="11,0"
       id="guide3292" />
  </sodipodi:namedview>
  <metadata
     id="metadata4188">
    <rdf:RDF>
      <cc:Work
         rdf:about="">
        <dc:format>image/svg+xml</dc:format>
        <dc:type
           rdf:resource="http://purl.org/dc/dcmitype/StillImage" />
        <dc:title />
      </cc:Work>
    </rdf:RDF>
  </metadata>
  <g
     inkscape:label="Capa 1"
     inkscape:groupmode="layer"
     id="layer1"
     transform="translate(0,-1004.3622)">
    <rect
       style="fill:none;fill-opacity:1;fill-rule:evenodd;stroke:none"
       id="rect3271"
       width="30"
       height="30"
       x="9"
       y="1013.3622" />
    <path
       style="fill:#4d4d4d;fill-opacity:1;fill-rule:evenodd;stroke:none"
       d="M 23.994141 9 C 20.066877 9.0002328 16.165567 10.617701 13.390625 13.394531 C 10.615683 16.171361 9 20.073326 9 24 C 9 27.926674 10.615683 31.828639 13.390625 34.605469 C 16.165567 37.382299 20.066877 38.999767 23.994141 39 C 25.004248 39.00006 26.011761 38.889622 27 38.683594 L 27 34.564453 C 26.022965 34.845047 25.010869 35.00006 23.994141 35 C 21.114147 34.999829 18.253707 33.813686 16.21875 31.777344 C 14.183793 29.741001 13 26.879561 13 24 C 13 21.120439 14.183793 18.258999 16.21875 16.222656 C 18.253707 14.186314 21.114147 13.000171 23.994141 13 C 26.874134 12.999829 29.737836 14.18435 31.775391 16.220703 C 33.095079 17.539614 34.051716 19.207538 34.566406 21 L 38.683594 21 C 38.088582 18.143951 36.66881 15.456654 34.603516 13.392578 C 31.825033 10.615734 27.921404 8.9997672 23.994141 9 z "
       transform="translate(0,1004.3622)"
       id="path3283" />
    <path
       sodipodi:type="arc"
       style="fill:#d35f5f;fill-opacity:1;fill-rule:evenodd;stroke:none"
       id="path3287"
       sodipodi:cx="23.998613"
       sodipodi:cy="1041.3622"
       sodipodi:rx="2.0013857"
       sodipodi:ry="2.0000615"
       d="m 25.999999,1041.3622 c 0,1.0472 -0.953629,2 -2.0009,2 -1.04727,-10e-5 -1.9991,-0.9529 -1.9991,-2 0,-1.0471 0.95183,-2 1.9991,-2 1.047271,-10e-5 2.0009,0.9528 2.0009,2 z" />
    <rect
       y="1025.3622"
       x="9"
       height="18"
       width="18"
       id="rect3290"
       style="fill:none;fill-opacity:0.44973545;fill-rule:evenodd;stroke:none" />
    <rect
       y="1039.3622"
       x="-27"
       height="4"
       width="11"
       id="rect3280"
       style="fill:#4d4d4d;fill-opacity:1;fill-rule:evenodd;stroke:none"
       transform="scale(-1,1)" />
    <rect
       style="fill:#4d4d4d;fill-opacity:1;fill-rule:evenodd;stroke:none"
       id="rect3282"
       width="11"
       height="4"
       x="-1043.3622"
       y="-27"
       transform="matrix(0,-1,-1,0,0,0)" />
  </g>
</svg>

<?xml version="1.0" encoding="utf-8"?>
<!-- Generator: Adobe Illustrator 17.0.0, SVG Export Plug-In . SVG Version: 6.00 Build 0)  -->
<!DOCTYPE svg PUBLIC "-//W3C//DTD SVG 1.1//EN" "http://www.w3.org/Graphics/SVG/1.1/DTD/svg11.dtd">
<svg version="1.1"
	 id="svg4183" xmlns:dc="http://purl.org/dc/elements/1.1/" xmlns:cc="http://creativecommons.org/ns#" xmlns:rdf="http://www.w3.org/1999/02/22-rdf-syntax-ns#" xmlns:svg="http://www.w3.org/2000/svg" xmlns:sodipodi="http://sodipodi.sourceforge.net/DTD/sodipodi-0.dtd" xmlns:inkscape="http://www.inkscape.org/namespaces/inkscape" sodipodi:docname="system-reboot.svg" inkscape:version="0.48+devel r12660"
	 xmlns="http://www.w3.org/2000/svg" xmlns:xlink="http://www.w3.org/1999/xlink" x="0px" y="0px" width="48px" height="48px"
	 viewBox="0 0 48 48" enable-background="new 0 0 48 48" xml:space="preserve">
<sodipodi:namedview  showgrid="false" inkscape:cy="36.878889" inkscape:cx="44.040309" inkscape:zoom="5.7317365" borderopacity="1.0" bordercolor="#666666" pagecolor="#ffffff" id="base" inkscape:window-maximized="1" inkscape:window-y="30" inkscape:window-x="0" inkscape:window-height="714" inkscape:window-width="1366" inkscape:current-layer="layer1" inkscape:document-units="px" inkscape:pageopacity="0.0" inkscape:pageshadow="2">
	<sodipodi:guide  orientation="30,0" position="9,39.000017" id="guide3275"></sodipodi:guide>
	<sodipodi:guide  orientation="0,30" position="9,9.0000174" id="guide3277"></sodipodi:guide>
	<sodipodi:guide  orientation="-30,0" position="39,9.0000174" id="guide3279"></sodipodi:guide>
	<sodipodi:guide  orientation="0,-30" position="39,39.000017" id="guide3281"></sodipodi:guide>
	<sodipodi:guide  orientation="18,0" position="9,39.000017" id="guide3294"></sodipodi:guide>
	<sodipodi:guide  orientation="18,0" position="9,27.000017" id="guide4104"></sodipodi:guide>
	<sodipodi:guide  orientation="0,18" position="9,9.0000174" id="guide4106"></sodipodi:guide>
	<sodipodi:guide  orientation="-18,0" position="27,9.0000174" id="guide4108"></sodipodi:guide>
	<sodipodi:guide  orientation="0,-18" position="27,27.000017" id="guide4110"></sodipodi:guide>
	<sodipodi:guide  orientation="4,0" position="27,13.000017" id="guide3278"></sodipodi:guide>
	<sodipodi:guide  orientation="0,-11" position="27,9.0000174" id="guide3280"></sodipodi:guide>
	<sodipodi:guide  orientation="-4,0" position="16,9.0000174" id="guide3282"></sodipodi:guide>
	<sodipodi:guide  orientation="0,11" position="16,13.000017" id="guide3284"></sodipodi:guide>
	<sodipodi:guide  orientation="0,-4" position="27,9.0000174" id="guide3286"></sodipodi:guide>
	<sodipodi:guide  orientation="-11,0" position="23,9.0000174" id="guide3288"></sodipodi:guide>
	<sodipodi:guide  orientation="0,4" position="23,20.000017" id="guide3290"></sodipodi:guide>
	<sodipodi:guide  orientation="11,0" position="27,20.000017" id="guide3292"></sodipodi:guide>
</sodipodi:namedview>
<rect id="rect3271" x="9" y="9" fill="none" width="30" height="30"/>
<path id="path3283" fill="#D1D1D1" d="M23.994,9c-3.927,0-7.829,1.618-10.604,4.395S9,20.073,9,24s1.616,7.829,4.391,10.605
	S20.067,39,23.994,39c1.01,0,2.018-0.11,3.006-0.316v-4.119C26.023,34.845,25.011,35,23.994,35c-2.88,0-5.74-1.186-7.775-3.223
	S13,26.88,13,24s1.184-5.741,3.219-7.777S21.114,13,23.994,13s5.744,1.184,7.781,3.221c1.32,1.319,2.276,2.987,2.791,4.779h4.117
	c-0.595-2.856-2.015-5.543-4.08-7.607C31.825,10.616,27.921,9,23.994,9z"/>
<path id="path3287" sodipodi:ry="2.0000615" sodipodi:rx="2.0013857" sodipodi:cy="1041.3622" sodipodi:cx="23.998613" sodipodi:type="arc" fill="#D35F5F" d="
	M26,37c0,1.047-0.954,2-2.001,2C22.952,39,22,38.047,22,37s0.952-2,1.999-2C25.046,35,26,35.953,26,37z"/>
<rect id="rect3290" x="9" y="21" fill="none" width="18" height="18"/>
<rect id="rect3280" x="16" y="35" fill="#D1D1D1" width="11" height="4"/>
<rect id="rect3282" x="23" y="28" fill="#D1D1D1" width="4" height="11"/>
</svg>
